static/images/mobile/copyright/wikipedia-wordmark-el.svg

<?xml version="1.0" encoding="UTF-8"?>
<svg xmlns="http://www.w3.org/2000/svg" width="125" height="18" viewBox="0 0 125 18">
	<title>
		Shape
	</title>
	<g id="Page-1" fill="none" fill-rule="evenodd" stroke="none" stroke-width="1">
		<path id="Shape" fill="#000" fill-rule="nonzero" d="M116.163373,-1.77635684e-15 C116.508852,-1.77635684e-15 116.667048,0.239490077 116.841366,0.676282612 L122.441336,15.4838373 C122.942691,16.8766006 123.828083,16.8766006 124.878923,16.9708553 C125.040359,17.1332942 125.040359,17.7018303 124.878923,17.865272 L123.679249,17.8341639 C123.07553,17.8202303 122.458383,17.810123 121.793586,17.810123 L120.934875,17.8147918 C120.023742,17.8237222 118.998534,17.8442151 118.248006,17.865272 C118.08657,17.7028331 118.08657,17.1342969 118.248006,16.9708553 L118.530774,16.9527299 C119.692771,16.885647 120.623647,16.894278 120.250417,15.8618587 L118.599957,11.2874988 L112.97175,11.2874988 C112.321994,11.2874988 112.158552,11.393786 112.024189,11.7467397 L110.536169,15.671344 C110.11102,16.7833486 111.383458,16.8996629 112.401208,16.9708553 C112.563647,17.1332942 112.563647,17.7018303 112.401208,17.865272 L111.157976,17.8359251 C110.714906,17.8270241 110.253663,17.8195155 109.805711,17.8149328 L108.936847,17.810123 C107.880994,17.810123 107.531049,17.8371961 106.52834,17.865272 C106.366903,17.7028331 106.366903,17.1342969 106.52834,16.9708553 L106.815685,16.9479328 C107.842522,16.8512752 108.581136,16.5828067 109.234652,15.0496642 L115.252913,0.966611785 C115.561748,0.240650237 115.767303,-1.77635684e-15 116.163373,-1.77635684e-15 Z M0.121829182,0.297804668 L2.27104457,0.341692785 C2.67858128,0.348002804 3.10601746,0.351950972 3.61326304,0.351950972 C4.77640585,0.351950972 6.04884398,0.298807378 6.99640428,0.298807378 C12.0310078,0.298807378 12.8151265,2.65316886 12.8151265,4.4650646 C12.8151265,5.93603918 11.5998428,7.32479159 10.2441798,8.01164747 L10.2441798,8.06579377 C12.5985413,8.74262257 14.4124424,10.2306432 14.4124424,12.8296658 C14.4124424,15.1559514 12.9775654,17.8642693 7.59201362,17.8642693 L6.12218276,17.8556522 C5.14113353,17.8427267 4.67798758,17.8190298 4.04558547,17.8114899 L3.64033619,17.8091202 C2.26060816,17.8091202 1.4474109,17.8361934 0.121829182,17.8642693 C-0.0406097275,17.7018303 -0.0406097275,17.1332942 0.121829182,16.9698525 L0.617801257,16.9438873 C2.09920036,16.8447009 2.47719338,16.5426984 2.47719338,14.5071985 L2.47719338,3.65387276 L2.47156195,3.25696756 C2.41405794,1.39109468 1.89850476,1.26736191 0.121829182,1.19121867 C-0.0406097275,1.02978247 -0.0406097275,0.460243578 0.121829182,0.297804668 Z M55.5024677,5.37753009 C55.6167765,5.49083624 55.6167765,5.89593081 55.5024677,6.01023967 L55.2138403,6.02518218 C54.1733593,6.08996556 53.877344,6.27045677 53.8544824,7.58146851 L53.8530108,15.4667913 C53.8530108,17.0621018 54.1748805,17.1583619 55.5024677,17.2155163 C55.6167765,17.3298252 55.6167765,17.7349198 55.5024677,17.8492286 L54.121734,17.819808 C53.7938919,17.8144407 53.4525001,17.8111257 53.0378082,17.8111257 L52.3043336,17.8156978 C51.7432695,17.8228308 51.2690289,17.8370529 50.5922001,17.8492286 C50.478894,17.7349198 50.478894,17.3298252 50.5922001,17.2155163 L50.8810247,17.200771 C51.9674011,17.1338281 52.241657,16.9393856 52.241657,15.4667913 L52.241657,7.60655291 C52.241657,6.41533423 51.8245299,6.18471109 51.3692998,6.18471109 L47.6342076,6.18471109 C47.1789776,6.18471109 46.7618505,6.41433152 46.7618505,7.60655291 L46.7618505,15.4667913 C46.7618505,17.0621018 47.0837202,17.1583619 48.4113074,17.2155163 C48.5246135,17.3298252 48.5246135,17.7349198 48.4113074,17.8492286 L47.0277088,17.819808 C46.7049621,17.8144407 46.3717966,17.8111257 45.9656993,17.8111257 L45.216959,17.8156978 C44.6447423,17.8228308 44.1649766,17.8370529 43.5010398,17.8492286 C43.3877337,17.7349198 43.3877337,17.3298252 43.5010398,17.2155163 L43.7898644,17.200771 C44.8762408,17.1338281 45.1504966,16.9393856 45.1504966,15.4667913 L45.1504966,7.75896472 C45.1504966,6.16365419 44.828627,6.0673941 43.5010398,6.01023967 C43.3877337,5.89593081 43.3877337,5.49083624 43.5010398,5.37753009 L45.5247806,5.41163662 C45.6419494,5.41294805 45.7465957,5.4138686 45.8352211,5.4143177 L53.3792898,5.41286146 C53.9257363,5.40773567 54.7271911,5.39229726 55.5024677,5.37753009 Z M34.9379022,5.37552467 C35.05923,5.48983353 35.05923,5.8949281 34.9379022,6.01023967 L34.4727477,6.06467019 C33.7892674,6.15282023 33.0572582,6.32176892 32.2987713,7.08514406 L29.2201628,10.2321801 C28.7705848,10.7013863 28.7050611,10.8139526 28.7050611,10.9295316 C28.7050611,11.0565414 28.747537,11.1717137 28.867305,11.3179886 L33.3957353,16.4053272 C34.0775776,17.2044865 34.8185798,17.1633754 35.1825633,17.2135109 C35.3048938,17.3278198 35.3048938,17.7329143 35.1825633,17.8472232 L33.7438579,17.8135602 C33.5633582,17.8107446 33.3696648,17.8091202 33.1320227,17.8091202 L32.7197525,17.8126767 C32.3466507,17.819398 32.0759191,17.8344387 31.7713462,17.8472232 C31.7063706,17.8472232 31.6805408,17.8093609 31.6728079,17.7659797 L31.6666312,17.5049464 C31.6531869,17.1799402 31.5872487,16.7793378 31.2639753,16.4063299 L27.9540318,12.6030535 C27.5479345,12.107715 27.0124877,11.8921325 26.3296427,11.8730811 L26.3296427,15.4647859 C26.3276373,17.0600964 26.673572,17.1573592 28.0954138,17.2145136 C28.2167416,17.3278198 28.2167416,17.733917 28.0954138,17.8482259 L26.6133568,17.819121 C26.2678431,17.8136222 25.9112264,17.810123 25.4763371,17.810123 L24.7668732,17.8135384 C24.1120884,17.8200247 23.5832219,17.8346893 22.8372061,17.8482259 C22.7148756,17.733917 22.7148756,17.3278198 22.8372061,17.2145136 L23.2720079,17.1914829 C24.3306488,17.1158767 24.60398,16.8838424 24.60398,15.4657886 L24.60398,7.75896472 L24.5980046,7.4283273 C24.5469699,6.1486108 24.1537263,6.062232 22.8372061,6.01023967 C22.7148756,5.8949281 22.7148756,5.48983353 22.8372061,5.37552467 L24.3192631,5.40555333 C24.5496056,5.40927183 24.7848827,5.41206655 25.0449967,5.41351653 L25.4562829,5.41463033 C26.4920816,5.41463033 27.1007262,5.39357344 28.0954138,5.37552467 C28.2167416,5.48983353 28.2167416,5.8949281 28.0954138,6.01023967 L27.6606121,6.03297325 C26.6460812,6.10476485 26.352781,6.32094812 26.3301006,7.58770342 L26.32864,11.1340843 C27.0385582,11.0759272 27.4637069,10.7941658 27.8718096,10.3910767 L31.2830267,7.00893815 C32.2596656,5.98416923 31.4474711,6.07441306 30.7144906,6.01023967 C30.59216,5.8949281 30.59216,5.48983353 30.7144906,5.37552467 L32.475378,5.41172312 L32.475378,5.41172312 L33.3959327,5.41268669 C33.9061392,5.40707272 34.1568828,5.39029184 34.9379022,5.37552467 Z M105.343137,5.37552467 C105.465468,5.48983353 105.465468,5.8949281 105.343137,6.01023967 L104.9086,6.03297325 C103.894575,6.10476485 103.600568,6.32094812 103.577828,7.58770342 L103.576363,15.4657886 C103.576363,17.0600964 103.923301,17.1573592 105.343137,17.2145136 C105.465468,17.3278198 105.465468,17.733917 105.343137,17.8482259 L103.861583,17.819121 C103.516078,17.8136222 103.159523,17.810123 102.725063,17.810123 L102.015866,17.8135384 C101.36094,17.8200247 100.830945,17.8346893 100.084929,17.8482259 C99.9636017,17.733917 99.9636017,17.3278198 100.084929,17.2145136 L100.52003,17.1914829 C101.579375,17.1158767 101.852706,16.8838424 101.852706,15.4657886 L101.852706,7.75896472 L101.846715,7.4283273 C101.795553,6.1486108 101.40145,6.062232 100.084929,6.01023967 C99.9636017,5.8949281 99.9636017,5.48983353 100.084929,5.37552467 L101.567723,5.40555333 C101.798025,5.40927183 102.033179,5.41206655 102.293088,5.41351653 L102.704006,5.41463033 C103.738802,5.41463033 104.34845,5.39357344 105.343137,5.37552467 Z M63.0027334,5.163953 C63.2865001,5.163953 63.4018117,5.36950841 63.5502127,5.74051086 L67.7124591,16.1566553 C68.0864696,17.1453267 68.7502632,17.1453267 69.5393954,17.2145136 C69.6597206,17.3278198 69.6597206,17.733917 69.5393954,17.8482259 L68.1818393,17.8180484 C67.8733739,17.8131712 67.5564375,17.810123 67.2231369,17.810123 L66.4809332,17.8145197 C65.8231501,17.8214188 65.1006878,17.8353339 64.5649545,17.8482259 C64.4436267,17.733917 64.4436267,17.3278198 64.5649545,17.2145136 L65.3060185,17.1709715 C65.9029251,17.1230102 66.2862418,17.0024862 66.0660104,16.4263841 L64.8276643,13.1786086 L60.6062581,13.1786086 C60.1189414,13.1786086 59.9976136,13.2558172 59.8963399,13.5054918 L58.7793217,16.292021 C58.4614629,17.0811533 59.4150394,17.1633754 60.1801066,17.2145136 C60.3014345,17.3278198 60.3014345,17.733917 60.1801066,17.8482259 L58.9106766,17.8220301 C58.6095296,17.8172673 58.3039261,17.8135628 58.0103551,17.8116224 L57.5810841,17.810123 C56.7889437,17.810123 56.5252312,17.8301771 55.7742019,17.8482259 C55.6518714,17.733917 55.6518714,17.3278198 55.7742019,17.2145136 C56.6575888,17.1553538 57.2682388,17.0360314 57.8046883,15.8498262 L62.3178829,5.85080889 C62.5495088,5.33441359 62.703926,5.163953 63.0027334,5.163953 Z M21.1697005,5.37552467 C21.2920311,5.48983353 21.2920311,5.8949281 21.1697005,6.01023967 L20.7349332,6.03297325 C19.720571,6.10476485 19.4280054,6.32094812 19.405386,7.58770342 L19.4039294,15.4657886 C19.4049321,17.0600964 19.7488614,17.1573592 21.1697005,17.2145136 C21.2920311,17.3278198 21.2920311,17.733917 21.1697005,17.8482259 L19.6879593,17.819121 C19.342314,17.8136222 18.9855131,17.810123 18.5506238,17.810123 L17.8411599,17.8135384 C17.1863751,17.8200247 16.6575086,17.8346893 15.9114929,17.8482259 C15.7891623,17.733917 15.7891623,17.3278198 15.9114929,17.2145136 L16.3462946,17.1914829 C17.4049355,17.1158767 17.6782667,16.8838424 17.6782667,15.4657886 L17.6782667,7.75896472 L17.6722913,7.4283273 C17.6212567,6.1486108 17.2280131,6.062232 15.9114929,6.01023967 C15.7891623,5.8949281 15.7891623,5.48983353 15.9114929,5.37552467 L17.3932341,5.40555333 C17.6236643,5.40927183 17.8590525,5.41206655 18.1192308,5.41351653 L18.5305696,5.41463033 C19.5663683,5.41463033 20.1750129,5.39357344 21.1697005,5.37552467 Z M74.9810989,5.37552467 C75.1024268,5.48983353 75.1024268,5.8949281 74.9810989,6.01023967 L74.5460331,6.03297325 C73.530996,6.10476485 73.2384024,6.32094812 73.2157818,7.58770342 L73.2143251,15.4657886 C73.2153278,17.0600964 73.5592571,17.1573592 74.9810989,17.2145136 C75.1024268,17.3278198 75.1024268,17.733917 74.9810989,17.8482259 L73.4983052,17.819121 C73.1528529,17.8136222 72.7964818,17.810123 72.3620222,17.810123 L71.652245,17.8135384 C70.9968961,17.8200247 70.4669016,17.8346893 69.7208858,17.8482259 C69.6005607,17.733917 69.6005607,17.3278198 69.7208858,17.2145136 L70.1562501,17.1914829 C71.2161235,17.1158767 71.4886624,16.8838424 71.4886624,15.4657886 L71.4886624,7.75896472 L71.4826866,7.4283273 C71.4316469,6.1486108 71.0383345,6.062232 69.7208858,6.01023967 C69.6005607,5.8949281 69.6005607,5.48983353 69.7208858,5.37552467 L71.2038666,5.40555333 C71.4342617,5.40927183 71.6695564,5.41206655 71.9296761,5.41351653 L72.3409653,5.41463033 C73.3757613,5.41463033 73.9864113,5.39357344 74.9810989,5.37552467 Z M42.1844825,5.37552467 C42.306813,5.48983353 42.306813,5.8949281 42.1844825,6.01023967 L41.7497151,6.03297325 C40.7353529,6.10476485 40.4427874,6.32094812 40.420168,7.58770342 L40.4187114,15.4657886 C40.4197141,17.0600964 40.7636434,17.1573592 42.1844825,17.2145136 C42.306813,17.3278198 42.306813,17.733917 42.1844825,17.8482259 L40.7027412,17.819121 C40.3570959,17.8136222 40.0002951,17.810123 39.5654057,17.810123 L38.8559419,17.8135384 C38.201157,17.8200247 37.6722905,17.8346893 36.9262748,17.8482259 C36.8039443,17.733917 36.8039443,17.3278198 36.9262748,17.2145136 L37.3610765,17.1914829 C38.4197175,17.1158767 38.6930486,16.8838424 38.6930486,15.4657886 L38.6930486,7.75896472 L38.6870732,7.4283273 C38.6360386,6.1486108 38.242795,6.062232 36.9262748,6.01023967 C36.8039443,5.8949281 36.8039443,5.48983353 36.9262748,5.37552467 L38.4080161,5.40555333 C38.6384463,5.40927183 38.8738345,5.41206655 39.1340127,5.41351653 L39.5453515,5.41463033 C40.5811503,5.41463033 41.1897948,5.39357344 42.1844825,5.37552467 Z M97.5440641,5.33541629 C97.59069,5.33541629 97.612499,5.34669677 97.6204893,5.3684117 L97.7276448,5.9583954 C97.8381468,6.60674894 98.0031994,7.64053947 98.0724919,8.17909993 C97.8729527,8.26934377 97.6533594,8.31045485 97.4006766,8.27636273 L97.2293409,7.78653235 C96.8493514,6.76323646 96.4310567,6.18170296 95.1074804,6.18170296 L92.9747177,6.18170296 C92.4894064,6.18170296 92.2437426,6.56574063 92.2437426,7.02698692 L92.2437426,10.8703717 L94.0917359,10.8703717 C95.8204067,10.8723772 95.8805693,10.6227025 95.9427373,9.56484421 C96.0640651,9.45053535 96.4912193,9.45053535 96.6125471,9.56484421 L96.5840952,10.3624995 C96.5789981,10.5352997 96.5750708,10.7123336 96.573019,10.9080105 L96.571436,11.2173092 C96.571436,11.8700729 96.5924929,12.2360618 96.6125471,12.9098825 C96.4912193,13.0231887 96.0640651,13.0231887 95.9427373,12.9098825 L95.9270194,12.7103172 C95.8604317,11.9764692 95.6832762,11.6013468 94.094744,11.6013468 L92.2467507,11.6013468 L92.2467507,16.2328612 C92.2467507,16.7522646 92.5305175,17.0590937 92.9777258,17.0590937 L95.7391873,17.0590937 C97.2823569,17.0590937 97.9932778,15.9250294 98.3983724,14.5412906 C98.6650931,14.4791226 98.8977216,14.5202337 99.1092933,14.6375507 C98.9468544,15.6182004 98.6420308,16.885625 98.358264,17.8462205 L96.4037991,17.8120802 C96.1750851,17.8096417 95.9541682,17.8081175 95.7592415,17.8081175 L91.0442333,17.8126897 C90.5068045,17.8198226 89.4648053,17.8340447 88.7543142,17.8462205 C88.6319836,17.7319116 88.6319836,17.3268171 88.7543142,17.2115055 L89.0526429,17.1975831 C90.2243617,17.1320081 90.5200853,16.9409225 90.5200853,15.4637831 L90.5200853,7.75595659 L90.5141103,7.42552549 C90.4630808,6.14659988 90.0699059,6.06015231 88.7543142,6.00723154 C88.6319836,5.89292268 88.6319836,5.48782811 88.7543142,5.37452196 L91.3723882,5.4116222 L91.3723882,5.4116222 L96.5503791,5.4116222 C97.0366931,5.4116222 97.1991321,5.39156802 97.5440641,5.33541629 Z M82.7861883,5.163953 L87.7385696,17.4260853 L87.8021163,17.6104585 C87.8147755,17.6511935 87.8197891,17.6752585 87.8197891,17.6948114 C87.8197891,17.77202 87.7385696,17.810123 87.3936376,17.810123 L76.6736723,17.810123 L76.4952527,17.8052034 C76.33789,17.7942049 76.2465181,17.7614916 76.2465181,17.6757599 C76.2465181,17.6176028 76.267575,17.6176028 76.3487944,17.4260853 L81.5257827,5.163953 L82.7861883,5.163953 Z M81.7684383,7.10720366 L81.7283299,7.10720366 L77.6071946,17.1573592 L85.7893027,17.1573592 L81.7684383,7.10720366 Z M6.6434506,8.82384202 L4.77640585,8.82384202 L4.77640585,15.1559514 C4.77640585,16.0503681 5.12835682,16.9708553 7.02247473,16.9708553 C11.1365911,16.9708553 11.8946393,15.3203957 11.8946393,13.3440556 C11.8946393,10.9084747 10.3514697,8.82384202 6.6434506,8.82384202 Z M62.5344681,7.240564 L62.4933571,7.240564 L60.4588598,12.114734 C60.3813778,12.3034257 60.495322,12.361185 60.8549338,12.3701273 L64.5037892,12.3714276 L62.5344681,7.240564 Z M115.542696,2.92390038 L115.486545,2.92390038 L112.775219,9.79045381 C112.661912,10.0832449 112.856438,10.1504265 113.457061,10.1504265 L118.166787,10.1504265 L115.542696,2.92390038 Z M7.27070866,1.22156092 L7.13177004,1.21929453 C4.85588727,1.21929453 4.78002452,1.47321507 4.77749576,2.29625493 L4.77740856,7.90435757 L6.77981907,7.90435757 C9.02588795,7.90435757 10.6232039,7.09116032 10.6232039,4.79194784 C10.6232039,2.11416702 8.76482719,1.27024856 7.27070866,1.22156092 Z"/>
	</g>
</svg>

<svg xmlns="http://www.w3.org/2000/svg" width="125" height="18"><path fill="#000" fill-rule="nonzero" d="M116.163 0c.346 0 .504.24.678.676l5.6 14.808c.502 1.393 1.387 1.393 2.438 1.487.161.162.161.73 0 .894l-1.2-.03a80.536 80.536 0 0 0-1.885-.025l-.86.005c-.91.009-1.935.03-2.686.05-.161-.162-.161-.73 0-.894l.283-.018c1.162-.067 2.093-.059 1.72-1.091l-1.651-4.575h-5.628c-.65 0-.813.107-.948.46l-1.488 3.924c-.425 1.112.847 1.229 1.865 1.3.163.162.163.73 0 .894l-1.243-.03c-.443-.008-.904-.015-1.352-.02l-.87-.005c-1.055 0-1.405.027-2.408.055-.161-.162-.161-.73 0-.894l.288-.023c1.027-.097 1.765-.365 2.419-1.898L115.253.967c.309-.726.514-.967.91-.967zM.122.298 2.27.342c.408.006.835.01 1.342.01C4.776.352 6.05.299 6.996.299c5.035 0 5.82 2.354 5.82 4.166 0 1.471-1.216 2.86-2.572 3.547v.054c2.355.677 4.168 2.165 4.168 4.764 0 2.326-1.434 5.034-6.82 5.034l-1.47-.008c-.98-.013-1.444-.037-2.076-.045l-.406-.002c-1.38 0-2.193.027-3.518.055-.163-.162-.163-.73 0-.894l.496-.026c1.481-.1 1.86-.401 1.86-2.437V3.654l-.006-.397c-.058-1.866-.573-1.99-2.35-2.066-.163-.161-.163-.73 0-.893zm55.38 5.08c.115.113.115.518 0 .632l-.288.015c-1.04.065-1.337.245-1.36 1.556l-.001 7.886c0 1.595.322 1.691 1.65 1.749.114.114.114.519 0 .633l-1.381-.03c-.328-.005-.67-.008-1.084-.008l-.734.005c-.56.007-1.035.021-1.712.033-.113-.114-.113-.52 0-.633l.289-.015c1.086-.067 1.36-.262 1.36-1.734v-7.86c0-1.192-.416-1.422-.872-1.422h-3.735c-.455 0-.872.23-.872 1.422v7.86c0 1.595.322 1.691 1.65 1.749.113.114.113.519 0 .633l-1.384-.03a61.947 61.947 0 0 0-1.062-.008l-.749.005c-.572.007-1.052.021-1.716.033-.113-.114-.113-.52 0-.633l.289-.015c1.086-.067 1.36-.262 1.36-1.734V7.759c0-1.595-.321-1.692-1.649-1.749-.113-.114-.113-.52 0-.632l2.024.034.31.002 7.544-.001c.547-.005 1.348-.02 2.123-.035zm-20.564-.002c.121.114.121.519 0 .634l-.465.055c-.684.088-1.416.257-2.174 1.02l-3.079 3.147c-.45.47-.515.582-.515.698 0 .127.043.242.162.388l4.529 5.087c.682.8 1.423.758 1.787.809.122.114.122.519 0 .633l-1.44-.033c-.18-.003-.373-.005-.611-.005l-.412.004c-.373.006-.644.021-.949.034-.065 0-.09-.038-.098-.081l-.006-.261c-.014-.325-.08-.726-.403-1.099l-3.31-3.803c-.406-.495-.942-.71-1.624-.73v3.592c-.002 1.595.344 1.692 1.765 1.75.122.113.122.519 0 .633l-1.482-.029a69.205 69.205 0 0 0-1.137-.009l-.71.004c-.654.006-1.183.02-1.929.034-.122-.114-.122-.52 0-.633l.435-.024c1.059-.075 1.332-.307 1.332-1.725V7.759l-.006-.33c-.051-1.28-.444-1.367-1.76-1.419-.123-.115-.123-.52 0-.634l1.481.03.726.008h.411c1.036 0 1.645-.02 2.64-.038.12.114.12.519 0 .634l-.435.023c-1.015.072-1.308.288-1.33 1.555l-.002 3.546c.71-.058 1.135-.34 1.543-.743l3.411-3.382c.977-1.025.164-.935-.569-.999-.122-.115-.122-.52 0-.634l1.761.036h.92c.511-.005.762-.022 1.543-.036zm70.405 0c.122.114.122.519 0 .634l-.434.023c-1.014.072-1.308.288-1.331 1.555l-.002 7.878c0 1.594.347 1.691 1.767 1.749.122.113.122.519 0 .633l-1.481-.029a69.18 69.18 0 0 0-1.137-.009l-.71.004c-.654.006-1.184.02-1.93.034-.121-.114-.121-.52 0-.633l.435-.024c1.06-.075 1.333-.307 1.333-1.725V7.759l-.006-.33c-.051-1.28-.446-1.367-1.762-1.419-.121-.115-.121-.52 0-.634l1.483.03.725.008h.411c1.035 0 1.644-.02 2.64-.038zm-42.34-.212c.284 0 .399.206.547.577l4.162 10.416c.374.988 1.038.988 1.827 1.058.12.113.12.519 0 .633l-1.357-.03a60.264 60.264 0 0 0-.959-.008l-.742.005c-.658.006-1.38.02-1.916.033-.121-.114-.121-.52 0-.633l.741-.044c.597-.048.98-.169.76-.745l-1.238-3.247h-4.222c-.487 0-.608.077-.71.326l-1.117 2.787c-.318.79.636.871 1.401.923.121.113.121.519 0 .633l-1.27-.026a98.814 98.814 0 0 0-.9-.01l-.429-.002c-.792 0-1.056.02-1.807.038-.122-.114-.122-.52 0-.633.884-.06 1.494-.179 2.03-1.365l4.514-10c.232-.516.386-.686.685-.686zm-41.833.212c.122.114.122.519 0 .634l-.435.023c-1.014.072-1.307.288-1.33 1.555l-.001 7.878c0 1.594.345 1.691 1.766 1.749.122.113.122.519 0 .633l-1.482-.029a69.258 69.258 0 0 0-1.137-.009l-.71.004c-.655.006-1.183.02-1.93.034-.122-.114-.122-.52 0-.633l.435-.024c1.059-.075 1.332-.307 1.332-1.725V7.759l-.006-.33c-.05-1.28-.444-1.367-1.76-1.419-.123-.115-.123-.52 0-.634l1.481.03.726.008h.412c1.035 0 1.644-.02 2.639-.038zm53.811 0c.121.114.121.519 0 .634l-.435.023c-1.015.072-1.308.288-1.33 1.555l-.002 7.878c.001 1.594.345 1.691 1.767 1.749.121.113.121.519 0 .633l-1.483-.029a69.144 69.144 0 0 0-1.136-.009l-.71.004c-.655.006-1.185.02-1.931.034-.12-.114-.12-.52 0-.633l.435-.024c1.06-.075 1.333-.307 1.333-1.725V7.759l-.006-.33c-.051-1.28-.445-1.367-1.762-1.419-.12-.115-.12-.52 0-.634l1.483.03.726.008h.411c1.035 0 1.645-.02 2.64-.038zm-32.797 0c.123.114.123.519 0 .634l-.434.023c-1.015.072-1.307.288-1.33 1.555l-.001 7.878c0 1.594.345 1.691 1.765 1.749.123.113.123.519 0 .633l-1.481-.029a69.258 69.258 0 0 0-1.138-.009l-.71.004c-.654.006-1.183.02-1.929.034-.122-.114-.122-.52 0-.633l.435-.024c1.059-.075 1.332-.307 1.332-1.725V7.759l-.006-.33c-.051-1.28-.444-1.367-1.76-1.419-.123-.115-.123-.52 0-.634l1.481.03.726.008h.411c1.036 0 1.645-.02 2.64-.038zm55.36-.04c.047 0 .068.01.076.032l.108.59c.11.649.275 1.683.344 2.221-.199.09-.419.131-.671.097l-.172-.49c-.38-1.023-.798-1.604-2.122-1.604h-2.132c-.486 0-.731.384-.731.845v3.843h1.848c1.728.002 1.789-.247 1.85-1.305.122-.114.55-.114.67 0l-.028.797c-.005.173-.009.35-.011.546l-.002.31c0 .652.021 1.018.042 1.692-.122.113-.549.113-.67 0l-.016-.2c-.067-.734-.244-1.109-1.832-1.109h-1.848v4.632c0 .52.284.826.73.826h2.762c1.543 0 2.254-1.134 2.66-2.518a.96.96 0 0 1 .71.097c-.162.98-.467 2.248-.75 3.208l-1.955-.034c-.229-.002-.45-.004-.645-.004l-4.715.005a694.7 694.7 0 0 0-2.29.033c-.122-.114-.122-.52 0-.634l.299-.014c1.171-.066 1.467-.257 1.467-1.734V7.756l-.006-.33c-.05-1.28-.444-1.366-1.76-1.419-.122-.114-.122-.52 0-.632l2.618.037h5.178c.487 0 .65-.02.994-.077zm-14.758-.172 4.953 12.262.063.184c.013.041.018.065.018.085 0 .077-.081.115-.426.115h-10.72l-.179-.005c-.157-.01-.248-.044-.248-.13 0-.057.02-.057.102-.249l5.177-12.262h1.26zm-1.018 1.943h-.04l-4.12 10.05h8.181l-4.02-10.05zM6.643 8.824H4.776v6.332c0 .894.352 1.815 2.246 1.815 4.115 0 4.873-1.65 4.873-3.627 0-2.436-1.544-4.52-5.252-4.52zM62.534 7.24h-.04l-2.035 4.874c-.078.188.036.246.396.255l3.649.001-1.97-5.13zm53.009-4.317h-.056l-2.712 6.866c-.113.293.081.36.682.36h4.71l-2.624-7.226zM7.27 1.222l-.14-.003c-2.275 0-2.351.254-2.354 1.077v5.608H6.78c2.246 0 3.843-.813 3.843-3.112 0-2.678-1.858-3.522-3.352-3.57z"/></svg>
